!!!COM: Felix Mendelssohn
!!!CNT: Deutsch
!!!TXO: Deutsch
!!!OTL: Ferne
!!!LYR: J. G. Droysen
!!!OPS: Op. 9
!!!ONM: No. 9
!!!ENC: Daniel Alt & Leigh VanHandel
!!!YOR: Sa2mmtliche Lieder fu2r eine Singstimme 
!!!YOR: Neu revidirt von Dr. L. Benda, Ausgabe fu2r mittlere Stimme
!!!YOR: Braunschweig. Henry Litolff's Verlag. Boston and New York: Arthur P. Schmidt.
!!!ODT: 1830/
**kern
*staff1
=1-
*clefG2
*k[b-e-a-]
*met(C)
*M4/4
2r
8r
{8e-
8g
8a-
=2
4.b-
8b-
4.ee-
8ff
=3
4ee-
4dd}
2r
=4
{2f
4g
4a-
=5
4g}
4r
8r
{8b-
8a-
8g
=6
4.f
8f
4g
4a-
=7
4a-
4g
8r
8b-
8a-
8g
=8
4.f
8f
4.g
8g
=9
4b-
4a-}
2r
=10
{2cc
4b-
4a-
=11
2g
2r
=12
2f
4g
4a-
=13
2g}
8r
{8e-
8g
8a-
=14
4.b-
8b-
4.ee-
8ff
=15
4ee-
4dd}
2r
=16
{2f
4g
4a-
=17
4g}
4r
8r
{8b-
8a-
8g
=18
4.f
8f
4g
4a-
=19
4a-
4g
8r
8b-
12ee-
12b-
12g
=20
4.f
8f
4.g
8g
=21
4b-
4a-}
2r
=22
{2cc
4b-
4a-
=23
2g}
2r
=24
{2f
4g
4a-
=25
2g}
8r
{8e-
8g
8a-
=26
4.b-
8b-
4.ee-
8ff
=27
4ee-
4dd}
2r
=28
{2f
4g
4a-
=29
4g}
4r
8r
{8b-
8a-
8g
=30
4.f
8f
4.g
8a-
=31
4a-
4g
8r
8b-
8a-
8g
=32
4.f
8f
4.g
8g
=33
4b-
4a-}
2r
=34
{2ee-
4dd
4cc
=35
2b-}
2r
=36
{2b-
2b-
=37
4.b-
8ee-
2b-}
==
*-